!!!OTL@@DE: Sehnsucht
!!!COM: Bornhardt, Joh. Heinrich Carl
!!!ODT: ~1810
!!!OMD: Allegretto
!!!LYR: Mahlmann, August
!!!LDT: 1801
!!!OCL: Erk, Ludwig
!!!GCO: Deutscher Liederschatz, Band 1
**kern	**kern	**kern
*staff3	*staff2	*staff1
*Ipiano	*Ipiano	*Ivox
*clefF4	*clefG2	*clefG2
*k[]	*k[]	*k[]
*C:	*C:	*C:
*met(C)	*met(C)	*met(C)
*M4/4	*M4/4	*M4/4
*MM56	*MM56	*MM56
8r	8r	8g/
4r	4r	8g/
.	.	8g/
=1	=1	=1
1C	(8c/ 8e/L	4.e/
.	8G/	.
.	8c/ 8e/	.
.	8G/J)	8e/
.	(8c/ 8e/L	8e/
.	8G/	8e/
.	8c/	8f/
.	8G/J)	8g/
=2	=2	=2
2GG/	(8B/ 8d/L	(8.g/L
.	8G/	.
.	.	16f/Jk)
.	8B/ 8d/	4d/
.	8G/J)	.
2GG/	(8B/ 8d/L	4r
.	8G/	.
.	8d/ 8f/	4b\
.	8G/J)	.
=3	=3	=3
2CC/	(8c/ 8e/L	4.cc\
.	8G/	.
.	8c/ 8e/	.
.	8G/J)	16b/LL
.	.	16a/JJ
2GG/	(8c/ 8e/L	8g/
.	8G/	8e/
.	8B/ 8d/	8d/
.	8G/J)	(16e/LL
.	.	16f/JJ)
=4	=4	=4
2C/	(8B/ 8d/L	(4f/
.	8G/	.
.	8c/ 8e/	4e/)
.	8G/J)	.
4CC/	(8c/ 8e/L	8r
.	8G/	8g/
4r	8c/ 8e/	8cc\
.	8G/J)	8ee\
=5	=5	=5
2.GG/	(8B/ 8d/L	4.dd\
.	8G/	.
.	8B/ 8d/	.
.	8G/J)	8ee\
.	(8B/ 8d/L	8ff\
.	8G/	8dd\
4FF/	8B/ 8d/	16cc\LL
.	.	16b\JJ
.	8G/J)	16a/LL
.	.	16g/JJ
=6	=6	=6
(2EE/	(8c/ 8g/L	(8.g/L
.	8G/	.
.	.	16cc/Jk)
.	8c/ 8e/ 8g/	4cc\
.	8G/J)	.
8C\L)	8c/ 8e/ 8g/L	8r
(8C\	(8e/	8cc\
8D\	8f/	8b\
8E\J)	8g/J)	8b-\
=7	=7	=7
4.F\	(8a/L	8a/
.	8f/	8a/
.	8c/	8bn\
8FF/	8A/J)	8cc\
2GG/	8r	(4g/
.	(8G/L	.
.	8B/ 8f/	8a/)
.	8G/J)	8b\
=8	=8	=8
2C\	8c\L	4cc\
.	8G\	.
.	8E\	4r
.	8G\J	.
8CC;/	8r;	8r;
==	==	==
*-	*-	*-
!!!ENC: Craig Stuart Sapp
!!!END: 2004/05/26/
!!!EFL: 058/651
